icons/assetpkg.svg

<?xml version="1.0" encoding="UTF-8" standalone="no"?>
<svg
   width="16"
   height="16"
   viewBox="0 0 16 16"
   version="1.1"
   xml:space="preserve"
   style="clip-rule:evenodd;fill-rule:evenodd;stroke-linejoin:round;stroke-miterlimit:2"
   id="svg512"
   sodipodi:docname="assetpkg.svg"
   inkscape:version="1.2.1 (9c6d41e410, 2022-07-14)"
   xmlns:inkscape="http://www.inkscape.org/namespaces/inkscape"
   xmlns:sodipodi="http://sodipodi.sourceforge.net/DTD/sodipodi-0.dtd"
   xmlns="http://www.w3.org/2000/svg"
   xmlns:svg="http://www.w3.org/2000/svg"><defs
   id="defs516" /><sodipodi:namedview
   id="namedview514"
   pagecolor="#ffffff"
   bordercolor="#000000"
   borderopacity="0.25"
   inkscape:showpageshadow="2"
   inkscape:pageopacity="0.0"
   inkscape:pagecheckerboard="0"
   inkscape:deskcolor="#d1d1d1"
   showgrid="false"
   inkscape:zoom="43.85"
   inkscape:cx="9.9885975"
   inkscape:cy="6.3397948"
   inkscape:window-width="1920"
   inkscape:window-height="1057"
   inkscape:window-x="-8"
   inkscape:window-y="-8"
   inkscape:window-maximized="1"
   inkscape:current-layer="svg512" />
    <g
   transform="matrix(1.0004288,0,0,1,-818.34663,-429.005)"
   id="g510">
        <path
   d="m 823.99,430.005 v 2 h 5 v 3.708 l 1.854,-1.855 c 0.093,-0.094 0.146,-0.221 0.146,-0.353 0.011,-0.974 0,-3.042 0,-3.5 z m -3,3 v 4 h 7 v -4 z m 11.484,1.125 c -0.127,0.004 -0.248,0.056 -0.338,0.146 l -3.728,3.729 h -8.912 c -0.274,0 -0.5,0.226 -0.5,0.5 v 5 c 0,0.274 0.226,0.5 0.5,0.5 h 8.494 v -4.5 c -0.003,-0.274 0.218,-0.502 0.492,-0.506 0.003,0 0.005,0 0.008,0 0.274,0 0.5,0.226 0.5,0.5 0,0.002 0,0.004 0,0.006 v 4.332 l 3.853,-3.854 c 0.094,-0.094 0.147,-0.221 0.147,-0.353 v -5 c 0,-0.275 -0.226,-0.5 -0.5,-0.5 -0.005,0 -0.011,0 -0.016,0 z"
   style="fill:#ffffff;fill-rule:nonzero"
   id="path508" />
    </g>
</svg>

<?xml version="1.0" encoding="UTF-8" standalone="no"?>
<!DOCTYPE svg PUBLIC "-//W3C//DTD SVG 1.1//EN" "http://www.w3.org/Graphics/SVG/1.1/DTD/svg11.dtd">
<svg width="100%" height="100%" viewBox="0 0 20 20" version="1.1" xmlns="http://www.w3.org/2000/svg" xmlns:xlink="http://www.w3.org/1999/xlink" xml:space="preserve" xmlns:serif="http://www.serif.com/" style="fill-rule:evenodd;clip-rule:evenodd;stroke-linejoin:round;stroke-miterlimit:2;">
    <g transform="matrix(1.28571,0,0,1.28571,-1051.99,-551.864)">
        <path d="M823.99,430.005L823.99,432.005L828.99,432.005L828.99,435.713L830.844,433.858C830.937,433.764 830.99,433.637 830.99,433.505C831.001,432.531 830.99,430.463 830.99,430.005L823.99,430.005ZM820.99,433.005L820.99,437.005L827.99,437.005L827.99,433.005L820.99,433.005ZM832.474,434.13C832.347,434.134 832.226,434.186 832.136,434.276L828.408,438.005L819.496,438.005C819.222,438.005 818.996,438.231 818.996,438.505L818.996,443.505C818.996,443.779 819.222,444.005 819.496,444.005L827.99,444.005L827.99,439.505C827.987,439.231 828.208,439.003 828.482,438.999C828.485,438.999 828.487,438.999 828.49,438.999C828.764,438.999 828.99,439.225 828.99,439.499C828.99,439.501 828.99,439.503 828.99,439.505L828.99,443.837L832.843,439.983C832.937,439.889 832.99,439.762 832.99,439.63L832.99,434.63C832.99,434.355 832.764,434.13 832.49,434.13C832.485,434.13 832.479,434.13 832.474,434.13Z" style="fill:white;fill-rule:nonzero;"/>
    </g>
</svg>
